Newaita-dark/apps/16/com.github.kmal-kenneth.monilet.svg

<svg height="16" viewBox="0 0 16 16" width="16" xmlns="http://www.w3.org/2000/svg" xmlns:xlink="http://www.w3.org/1999/xlink"><linearGradient id="a" gradientUnits="userSpaceOnUse" x1="7.93826" x2="7.93826" y1="14.0169685" y2="14.67849050002"><stop offset="0" stop-opacity=".27451"/><stop offset="1" stop-opacity="0"/></linearGradient><linearGradient id="b"><stop offset="0" stop-opacity=".313726"/><stop offset=".222222" stop-opacity=".27451"/><stop offset="1" stop-opacity="0"/></linearGradient><radialGradient id="c" cx="450.908936" cy="189.579361" gradientTransform="matrix(.00000009 -.0390662 -.0703192 -.00000005 26.065324 31.797666)" gradientUnits="userSpaceOnUse" r="21.166656" xlink:href="#b"/><radialGradient id="d" cx="450.908936" cy="189.579361" gradientTransform="matrix(-.00000009 .0390662 .0703192 .00000005 -10.188807 -3.763739)" gradientUnits="userSpaceOnUse" r="21.166656" xlink:href="#b"/><radialGradient id="e" cx="450.908936" cy="189.579361" gradientTransform="matrix(-.00000009 -.0390662 .0703192 -.00000005 -10.188807 31.797666)" gradientUnits="userSpaceOnUse" r="21.166656" xlink:href="#b"/><radialGradient id="f" cx="450.908936" cy="189.579361" gradientTransform="matrix(.00000009 .0390662 -.0703192 .00000005 26.065323 -3.76374)" gradientUnits="userSpaceOnUse" r="21.166656" xlink:href="#b"/><linearGradient id="g" gradientUnits="userSpaceOnUse" x1="5.29217449998" x2="5.29217449998" y1="14.0169675" y2="1.44805300003"><stop offset="0" stop-color="#424242"/><stop offset="1" stop-color="#616161"/></linearGradient><path d="m2.976562 13.96875h9.921876v.734375h-9.921876zm0 0" fill="url(#a)"/><path d="m12.898438 14.015625h1.324218v-.660156h-1.324218zm0 0" fill="url(#c)"/><path d="m2.976562 14.015625h-1.324218v.664063h1.324218zm0 0" fill="url(#d)"/><path d="m2.976562 14.015625h-1.324218v-.660156h1.324218zm0 0" fill="url(#e)"/><path d="m12.898438 14.015625h1.324218v.664063h-1.324218zm0 0" fill="url(#f)"/><path d="m2.316406 1.449219h11.246094c.363281 0 .660156.296875.660156.660156v11.246094c0 .367187-.296875.660156-.660156.660156h-11.246094c-.367187 0-.664062-.292969-.664062-.660156v-11.246094c0-.363281.296875-.660156.664062-.660156zm0 0" fill="url(#g)"/><path d="m2.316406 1.449219c-.367187 0-.664062.292969-.664062.660156v.082031c0-.367187.296875-.660156.664062-.660156h11.246094c.363281 0 .660156.292969.660156.660156v-.082031c0-.367187-.296875-.660156-.660156-.660156zm0 0" fill="#e6e6e6" fill-opacity=".392157"/><path d="m2.316406 14.015625c-.367187 0-.664062-.292969-.664062-.660156v-.082031c0 .367187.296875.660156.664062.660156h11.246094c.363281 0 .660156-.292969.660156-.660156v.082031c0 .367187-.296875.660156-.660156.660156zm0 0" fill-opacity=".196078"/><path d="m74.117922-168.629428h359.840637c11.62389 0 21.122983 9.499093 21.122983 21.122983v359.840637c0 11.748878-9.499093 21.122982-21.122983 21.122982h-359.840637c-11.748878 0-21.247971-9.374104-21.247971-21.122982v-359.840637c0-11.62389 9.499093-21.122983 21.247971-21.122983zm0 0" fill="none" stroke="#212121" stroke-linecap="round" stroke-width="3" transform="matrix(.031253 0 0 .031253 0 6.719392)"/><path d="m7.9375 3.4375c-2.367188 0-4.292969 1.925781-4.292969 4.296875v.078125c.042969-2.332031 1.953125-4.214844 4.292969-4.214844 2.34375 0 4.253906 1.882813 4.292969 4.214844.003906-.027344.003906-.050781.003906-.078125 0-2.371094-1.929687-4.296875-4.296875-4.296875zm-2.980469 4.375v.082031c0 1.167969.660157 2.164063 1.625 2.65625.199219.097657.332031.289063.359375.507813.035156-.277344-.109375-.542969-.359375-.667969-.945312-.480469-1.597656-1.441406-1.625-2.578125zm5.960938 0c-.027344 1.136719-.679688 2.097656-1.625 2.578125-.25.125-.394531.390625-.359375.667969.027344-.21875.164062-.410156.359375-.507813.96875-.492187 1.628906-1.488281 1.628906-2.65625 0-.027343 0-.054687-.003906-.082031zm0 0" fill-opacity=".235294"/><path d="m7.9375 3.4375c-2.367188 0-4.292969 1.925781-4.292969 4.296875 0 1.664063.949219 3.117187 2.34375 3.824219.207031.113281.460938.101562.660157-.027344.199218-.128906.3125-.351562.300781-.589844-.015625-.234375-.15625-.445312-.367188-.550781-.964843-.492187-1.625-1.488281-1.625-2.65625 0-1.664063 1.316407-2.984375 2.980469-2.984375s2.984375 1.320312 2.984375 2.984375c0 1.167969-.660156 2.164063-1.628906 2.65625-.210938.105469-.351563.316406-.363281.550781-.015626.238282.101562.460938.300781.589844s.449219.140625.660156.027344c1.390625-.707032 2.34375-2.160156 2.34375-3.824219 0-2.371094-1.929687-4.296875-4.296875-4.296875zm0 0" fill-opacity=".235294"/><path d="m7.9375 3.4375c-2.367188 0-4.292969 1.925781-4.292969 4.296875 0 1.664063.949219 3.117187 2.34375 3.824219.207031.113281.460938.101562.660157-.027344.199218-.128906.3125-.351562.300781-.589844-.015625-.234375-.15625-.445312-.367188-.550781-.964843-.492187-1.625-1.488281-1.625-2.65625 0-1.664063 1.316407-2.984375 2.980469-2.984375.238281.003906.457031-.121094.578125-.324219.117187-.207031.117187-.457031 0-.664062-.121094-.203125-.339844-.328125-.578125-.324219zm0 0" fill="#26a69a"/><path d="m7.9375 4.773438c-1.621094 0-2.914062 1.25-2.980469 2.851562 0-.015625 0-.03125 0-.046875v.085937.128907c.066407-1.605469 1.359375-2.855469 2.980469-2.855469s2.914062 1.25 2.980469 2.855469c0-.042969.003906-.085938.003906-.128907 0-.027343-.003906-.054687-.003906-.085937v.046875c-.066407-1.601562-1.359375-2.851562-2.980469-2.851562zm-4.292969 3.066406v.082031c0 1.664063.949219 3.117187 2.34375 3.824219.214844.113281.476563.097656.675781-.042969.203126-.136719.308594-.378906.277344-.621094-.027344.214844-.15625.402344-.347656.5-.1875.101563-.417969.101563-.605469 0-1.371093-.695312-2.3125-2.109375-2.34375-3.742187zm8.585938 0c-.03125 1.632812-.972657 3.046875-2.339844 3.742187-.191406.101563-.417969.101563-.609375 0-.191406-.097656-.320312-.285156-.347656-.496093-.03125.242187.078125.480468.277344.621093.199218.136719.460937.152344.679687.039063 1.390625-.707032 2.34375-2.160156 2.34375-3.824219 0-.027344 0-.054687-.003906-.082031zm0 0" fill="#fff" fill-opacity=".392157"/><path d="m253.975747-105.010503c-75.742767 0-137.361883 61.619115-137.361883 137.48687 0 53.244916 30.3721 99.740475 74.992838 122.363315 6.624368 3.624654 14.748592 3.24969 21.122983-.874916 6.374392-4.124606 9.999045-11.248926 9.624081-18.873198-.499952-7.499284-4.999522-14.248639-11.748878-17.623317-30.872052-15.748496-51.995034-47.620453-51.995034-84.991884 0-53.244915 42.120977-95.490881 95.365893-95.490881 53.244915 0 95.490881 42.245966 95.490881 95.490881 0 37.371431-21.122983 69.243388-52.120023 84.991884-6.749356 3.374678-11.248926 10.124033-11.62389 17.623317-.499952 7.624272 3.24969 14.748592 9.624081 18.873198s14.373627 4.49957 21.122983.874916c44.495751-22.62284 74.992838-69.118399 74.992838-122.363315 0-75.867755-61.744104-137.48687-137.48687-137.48687zm0 0" fill="none" stroke="#212121" stroke-linecap="round" stroke-linejoin="round" stroke-width="3" transform="matrix(.031253 0 0 .031253 0 6.719392)"/><path d="m7.9375 3.472656c-2.367188 0-4.292969 1.929688-4.292969 4.296875v.082031c.042969-2.332031 1.953125-4.21875 4.292969-4.21875.335938-.003906.621094.242188.660156.574219.023438-.1875-.035156-.375-.164062-.515625-.125-.140625-.304688-.21875-.496094-.21875zm-2.980469 4.375v.082032c0 1.171874.660157 2.164062 1.625 2.65625.199219.097656.332031.289062.359375.507812.035156-.277344-.109375-.542969-.359375-.667969-.945312-.480469-1.597656-1.441406-1.625-2.578125zm0 0" fill="#fff" fill-opacity=".392157"/><path d="m8.597656 4.011719c-.039062.332031-.324218.582031-.660156.578125-1.664062 0-2.980469 1.316406-2.980469 2.980468v.078126c.042969-1.621094 1.34375-2.898438 2.980469-2.898438.191406.003906.371094-.078125.5-.21875.125-.140625.183594-.332031.160156-.519531zm-4.953125 3.640625v.082031c0 1.664063.949219 3.117187 2.34375 3.824219.214844.117187.476563.097656.675781-.039063.203126-.140625.308594-.378906.277344-.621093-.023437.210937-.15625.398437-.34375.5-.191406.101562-.421875.101562-.609375 0-1.371093-.699219-2.3125-2.113282-2.34375-3.746094zm0 0" fill-opacity=".235294"/><path d="m253.975747-105.010503c-75.742767 0-137.361883 61.619115-137.361883 137.48687 0 53.244916 30.3721 99.740475 74.992838 122.363315 6.624368 3.624654 14.748592 3.24969 21.122983-.874916 6.374392-4.124606 9.999045-11.248926 9.624081-18.873198-.499952-7.499284-4.999522-14.248639-11.748878-17.623317-30.872052-15.748496-51.995034-47.620453-51.995034-84.991884 0-53.244915 42.120977-95.490881 95.365893-95.490881 7.624271.124988 14.623603-3.87463 18.498233-10.374009 3.749642-6.624368 3.749642-14.623604 0-21.247971-3.87463-6.499379-10.873962-10.498998-18.498233-10.374009zm0 0" fill="none" stroke="#212121" stroke-linecap="round" stroke-linejoin="round" stroke-width="3" transform="matrix(.031253 0 0 .031253 0 6.719392)"/></svg>

<?xml version="1.0" encoding="UTF-8"?>
<svg xmlns="http://www.w3.org/2000/svg" xmlns:xlink="http://www.w3.org/1999/xlink" width="16px" height="16px" viewBox="0 0 16 16" version="1.1">
<defs>
<linearGradient id="linear0" gradientUnits="userSpaceOnUse" x1="254" y1="233.5" x2="254" y2="254.666672" gradientTransform="matrix(0.031253,0,0,0.031253,-0.00000190753,6.719393)">
<stop offset="0" style="stop-color:rgb(0%,0%,0%);stop-opacity:0.27451;"/>
<stop offset="1" style="stop-color:rgb(0%,0%,0%);stop-opacity:0;"/>
</linearGradient>
<radialGradient id="radial0" gradientUnits="userSpaceOnUse" cx="450.908936" cy="189.579361" fx="450.908936" fy="189.579361" r="21.166656" gradientTransform="matrix(0.0000000870852,-0.0390662,-0.0703192,-0.0000000507693,26.065324,31.797666)">
<stop offset="0" style="stop-color:rgb(0%,0%,0%);stop-opacity:0.313726;"/>
<stop offset="0.222222" style="stop-color:rgb(0%,0%,0%);stop-opacity:0.27451;"/>
<stop offset="1" style="stop-color:rgb(0%,0%,0%);stop-opacity:0;"/>
</radialGradient>
<radialGradient id="radial1" gradientUnits="userSpaceOnUse" cx="450.908936" cy="189.579361" fx="450.908936" fy="189.579361" r="21.166656" gradientTransform="matrix(-0.0000000870852,0.0390662,0.0703192,0.0000000507693,-10.188807,-3.763739)">
<stop offset="0" style="stop-color:rgb(0%,0%,0%);stop-opacity:0.313726;"/>
<stop offset="0.222222" style="stop-color:rgb(0%,0%,0%);stop-opacity:0.27451;"/>
<stop offset="1" style="stop-color:rgb(0%,0%,0%);stop-opacity:0;"/>
</radialGradient>
<radialGradient id="radial2" gradientUnits="userSpaceOnUse" cx="450.908936" cy="189.579361" fx="450.908936" fy="189.579361" r="21.166656" gradientTransform="matrix(-0.0000000870852,-0.0390662,0.0703192,-0.0000000507693,-10.188807,31.797666)">
<stop offset="0" style="stop-color:rgb(0%,0%,0%);stop-opacity:0.313726;"/>
<stop offset="0.222222" style="stop-color:rgb(0%,0%,0%);stop-opacity:0.27451;"/>
<stop offset="1" style="stop-color:rgb(0%,0%,0%);stop-opacity:0;"/>
</radialGradient>
<radialGradient id="radial3" gradientUnits="userSpaceOnUse" cx="450.908936" cy="189.579361" fx="450.908936" fy="189.579361" r="21.166656" gradientTransform="matrix(0.0000000870852,0.0390662,-0.0703192,0.0000000507693,26.065323,-3.76374)">
<stop offset="0" style="stop-color:rgb(0%,0%,0%);stop-opacity:0.313726;"/>
<stop offset="0.222222" style="stop-color:rgb(0%,0%,0%);stop-opacity:0.27451;"/>
<stop offset="1" style="stop-color:rgb(0%,0%,0%);stop-opacity:0;"/>
</radialGradient>
<linearGradient id="linear1" gradientUnits="userSpaceOnUse" x1="169.333328" y1="233.5" x2="169.333328" y2="-168.666656" gradientTransform="matrix(0.031253,0,0,0.031253,0,6.719392)">
<stop offset="0" style="stop-color:rgb(25.882354%,25.882354%,25.882354%);stop-opacity:1;"/>
<stop offset="1" style="stop-color:rgb(38.039216%,38.039216%,38.039216%);stop-opacity:1;"/>
</linearGradient>
</defs>
<g id="surface1">
<path style=" stroke:none;fill-rule:nonzero;fill:url(#linear0);" d="M 2.976562 13.96875 L 12.898438 13.96875 L 12.898438 14.703125 L 2.976562 14.703125 Z M 2.976562 13.96875 "/>
<path style=" stroke:none;fill-rule:nonzero;fill:url(#radial0);" d="M 12.898438 14.015625 L 14.222656 14.015625 L 14.222656 13.355469 L 12.898438 13.355469 Z M 12.898438 14.015625 "/>
<path style=" stroke:none;fill-rule:nonzero;fill:url(#radial1);" d="M 2.976562 14.015625 L 1.652344 14.015625 L 1.652344 14.679688 L 2.976562 14.679688 Z M 2.976562 14.015625 "/>
<path style=" stroke:none;fill-rule:nonzero;fill:url(#radial2);" d="M 2.976562 14.015625 L 1.652344 14.015625 L 1.652344 13.355469 L 2.976562 13.355469 Z M 2.976562 14.015625 "/>
<path style=" stroke:none;fill-rule:nonzero;fill:url(#radial3);" d="M 12.898438 14.015625 L 14.222656 14.015625 L 14.222656 14.679688 L 12.898438 14.679688 Z M 12.898438 14.015625 "/>
<path style=" stroke:none;fill-rule:nonzero;fill:url(#linear1);" d="M 2.316406 1.449219 L 13.5625 1.449219 C 13.925781 1.449219 14.222656 1.746094 14.222656 2.109375 L 14.222656 13.355469 C 14.222656 13.722656 13.925781 14.015625 13.5625 14.015625 L 2.316406 14.015625 C 1.949219 14.015625 1.652344 13.722656 1.652344 13.355469 L 1.652344 2.109375 C 1.652344 1.746094 1.949219 1.449219 2.316406 1.449219 Z M 2.316406 1.449219 "/>
<path style=" stroke:none;fill-rule:nonzero;fill:rgb(90.196079%,90.196079%,90.196079%);fill-opacity:0.392157;" d="M 2.316406 1.449219 C 1.949219 1.449219 1.652344 1.742188 1.652344 2.109375 L 1.652344 2.191406 C 1.652344 1.824219 1.949219 1.53125 2.316406 1.53125 L 13.5625 1.53125 C 13.925781 1.53125 14.222656 1.824219 14.222656 2.191406 L 14.222656 2.109375 C 14.222656 1.742188 13.925781 1.449219 13.5625 1.449219 Z M 2.316406 1.449219 "/>
<path style=" stroke:none;fill-rule:nonzero;fill:rgb(0%,0%,0%);fill-opacity:0.196078;" d="M 2.316406 14.015625 C 1.949219 14.015625 1.652344 13.722656 1.652344 13.355469 L 1.652344 13.273438 C 1.652344 13.640625 1.949219 13.933594 2.316406 13.933594 L 13.5625 13.933594 C 13.925781 13.933594 14.222656 13.640625 14.222656 13.273438 L 14.222656 13.355469 C 14.222656 13.722656 13.925781 14.015625 13.5625 14.015625 Z M 2.316406 14.015625 "/>
<path style="fill:none;stroke-width:3;stroke-linecap:round;stroke-linejoin:miter;stroke:rgb(12.941177%,12.941177%,12.941177%);stroke-opacity:1;stroke-miterlimit:4;" d="M 74.117922 -168.629428 L 433.958559 -168.629428 C 445.582449 -168.629428 455.081542 -159.130335 455.081542 -147.506445 L 455.081542 212.334192 C 455.081542 224.08307 445.582449 233.457174 433.958559 233.457174 L 74.117922 233.457174 C 62.369044 233.457174 52.869951 224.08307 52.869951 212.334192 L 52.869951 -147.506445 C 52.869951 -159.130335 62.369044 -168.629428 74.117922 -168.629428 Z M 74.117922 -168.629428 " transform="matrix(0.031253,0,0,0.031253,0,6.719392)"/>
<path style=" stroke:none;fill-rule:nonzero;fill:rgb(0%,0%,0%);fill-opacity:0.235294;" d="M 7.9375 3.4375 C 5.570312 3.4375 3.644531 5.363281 3.644531 7.734375 C 3.644531 7.761719 3.644531 7.785156 3.644531 7.8125 C 3.6875 5.480469 5.597656 3.597656 7.9375 3.597656 C 10.28125 3.597656 12.191406 5.480469 12.230469 7.8125 C 12.234375 7.785156 12.234375 7.761719 12.234375 7.734375 C 12.234375 5.363281 10.304688 3.4375 7.9375 3.4375 Z M 4.957031 7.8125 C 4.957031 7.839844 4.957031 7.867188 4.957031 7.894531 C 4.957031 9.0625 5.617188 10.058594 6.582031 10.550781 C 6.78125 10.648438 6.914062 10.839844 6.941406 11.058594 C 6.976562 10.78125 6.832031 10.515625 6.582031 10.390625 C 5.636719 9.910156 4.984375 8.949219 4.957031 7.8125 Z M 10.917969 7.8125 C 10.890625 8.949219 10.238281 9.910156 9.292969 10.390625 C 9.042969 10.515625 8.898438 10.78125 8.933594 11.058594 C 8.960938 10.839844 9.097656 10.648438 9.292969 10.550781 C 10.261719 10.058594 10.921875 9.0625 10.921875 7.894531 C 10.921875 7.867188 10.921875 7.839844 10.917969 7.8125 Z M 10.917969 7.8125 "/>
<path style=" stroke:none;fill-rule:nonzero;fill:rgb(0%,0%,0%);fill-opacity:0.235294;" d="M 7.9375 3.4375 C 5.570312 3.4375 3.644531 5.363281 3.644531 7.734375 C 3.644531 9.398438 4.59375 10.851562 5.988281 11.558594 C 6.195312 11.671875 6.449219 11.660156 6.648438 11.53125 C 6.847656 11.402344 6.960938 11.179688 6.949219 10.941406 C 6.933594 10.707031 6.792969 10.496094 6.582031 10.390625 C 5.617188 9.898438 4.957031 8.902344 4.957031 7.734375 C 4.957031 6.070312 6.273438 4.75 7.9375 4.75 C 9.601562 4.75 10.921875 6.070312 10.921875 7.734375 C 10.921875 8.902344 10.261719 9.898438 9.292969 10.390625 C 9.082031 10.496094 8.941406 10.707031 8.929688 10.941406 C 8.914062 11.179688 9.03125 11.402344 9.230469 11.53125 C 9.429688 11.660156 9.679688 11.671875 9.890625 11.558594 C 11.28125 10.851562 12.234375 9.398438 12.234375 7.734375 C 12.234375 5.363281 10.304688 3.4375 7.9375 3.4375 Z M 7.9375 3.4375 "/>
<path style=" stroke:none;fill-rule:nonzero;fill:rgb(14.901961%,65.098041%,60.392159%);fill-opacity:1;" d="M 7.9375 3.4375 C 5.570312 3.4375 3.644531 5.363281 3.644531 7.734375 C 3.644531 9.398438 4.59375 10.851562 5.988281 11.558594 C 6.195312 11.671875 6.449219 11.660156 6.648438 11.53125 C 6.847656 11.402344 6.960938 11.179688 6.949219 10.941406 C 6.933594 10.707031 6.792969 10.496094 6.582031 10.390625 C 5.617188 9.898438 4.957031 8.902344 4.957031 7.734375 C 4.957031 6.070312 6.273438 4.75 7.9375 4.75 C 8.175781 4.753906 8.394531 4.628906 8.515625 4.425781 C 8.632812 4.21875 8.632812 3.96875 8.515625 3.761719 C 8.394531 3.558594 8.175781 3.433594 7.9375 3.4375 Z M 7.9375 3.4375 "/>
<path style=" stroke:none;fill-rule:nonzero;fill:rgb(100%,100%,100%);fill-opacity:0.392157;" d="M 7.9375 4.773438 C 6.316406 4.773438 5.023438 6.023438 4.957031 7.625 C 4.957031 7.609375 4.957031 7.59375 4.957031 7.578125 C 4.957031 7.609375 4.957031 7.636719 4.957031 7.664062 C 4.957031 7.707031 4.957031 7.75 4.957031 7.792969 C 5.023438 6.1875 6.316406 4.9375 7.9375 4.9375 C 9.558594 4.9375 10.851562 6.1875 10.917969 7.792969 C 10.917969 7.75 10.921875 7.707031 10.921875 7.664062 C 10.921875 7.636719 10.917969 7.609375 10.917969 7.578125 C 10.917969 7.59375 10.917969 7.609375 10.917969 7.625 C 10.851562 6.023438 9.558594 4.773438 7.9375 4.773438 Z M 3.644531 7.839844 C 3.644531 7.867188 3.644531 7.894531 3.644531 7.921875 C 3.644531 9.585938 4.59375 11.039062 5.988281 11.746094 C 6.203125 11.859375 6.464844 11.84375 6.664062 11.703125 C 6.867188 11.566406 6.972656 11.324219 6.941406 11.082031 C 6.914062 11.296875 6.785156 11.484375 6.59375 11.582031 C 6.40625 11.683594 6.175781 11.683594 5.988281 11.582031 C 4.617188 10.886719 3.675781 9.472656 3.644531 7.839844 Z M 12.230469 7.839844 C 12.199219 9.472656 11.257812 10.886719 9.890625 11.582031 C 9.699219 11.683594 9.472656 11.683594 9.28125 11.582031 C 9.089844 11.484375 8.960938 11.296875 8.933594 11.085938 C 8.902344 11.328125 9.011719 11.566406 9.210938 11.707031 C 9.410156 11.84375 9.671875 11.859375 9.890625 11.746094 C 11.28125 11.039062 12.234375 9.585938 12.234375 7.921875 C 12.234375 7.894531 12.234375 7.867188 12.230469 7.839844 Z M 12.230469 7.839844 "/>
<path style="fill:none;stroke-width:3;stroke-linecap:round;stroke-linejoin:round;stroke:rgb(12.941177%,12.941177%,12.941177%);stroke-opacity:1;stroke-miterlimit:4;" d="M 253.975747 -105.010503 C 178.23298 -105.010503 116.613864 -43.391388 116.613864 32.476367 C 116.613864 85.721283 146.985964 132.216842 191.606702 154.839682 C 198.23107 158.464336 206.355294 158.089372 212.729685 153.964766 C 219.104077 149.84016 222.72873 142.71584 222.353766 135.091568 C 221.853814 127.592284 217.354244 120.842929 210.604888 117.468251 C 179.732836 101.719755 158.609854 69.847798 158.609854 32.476367 C 158.609854 -20.768548 200.730831 -63.014514 253.975747 -63.014514 C 307.220662 -63.014514 349.466628 -20.768548 349.466628 32.476367 C 349.466628 69.847798 328.343645 101.719755 297.346605 117.468251 C 290.597249 120.842929 286.097679 127.592284 285.722715 135.091568 C 285.222763 142.71584 288.972405 149.84016 295.346796 153.964766 C 301.721187 158.089372 309.720423 158.464336 316.469779 154.839682 C 360.96553 132.216842 391.462617 85.721283 391.462617 32.476367 C 391.462617 -43.391388 329.718513 -105.010503 253.975747 -105.010503 Z M 253.975747 -105.010503 " transform="matrix(0.031253,0,0,0.031253,0,6.719392)"/>
<path style=" stroke:none;fill-rule:nonzero;fill:rgb(100%,100%,100%);fill-opacity:0.392157;" d="M 7.9375 3.472656 C 5.570312 3.472656 3.644531 5.402344 3.644531 7.769531 C 3.644531 7.796875 3.644531 7.824219 3.644531 7.851562 C 3.6875 5.519531 5.597656 3.632812 7.9375 3.632812 C 8.273438 3.628906 8.558594 3.875 8.597656 4.207031 C 8.621094 4.019531 8.5625 3.832031 8.433594 3.691406 C 8.308594 3.550781 8.128906 3.472656 7.9375 3.472656 Z M 4.957031 7.847656 C 4.957031 7.875 4.957031 7.902344 4.957031 7.929688 C 4.957031 9.101562 5.617188 10.09375 6.582031 10.585938 C 6.78125 10.683594 6.914062 10.875 6.941406 11.09375 C 6.976562 10.816406 6.832031 10.550781 6.582031 10.425781 C 5.636719 9.945312 4.984375 8.984375 4.957031 7.847656 Z M 4.957031 7.847656 "/>
<path style=" stroke:none;fill-rule:nonzero;fill:rgb(0%,0%,0%);fill-opacity:0.235294;" d="M 8.597656 4.011719 C 8.558594 4.34375 8.273438 4.59375 7.9375 4.589844 C 6.273438 4.589844 4.957031 5.90625 4.957031 7.570312 C 4.957031 7.597656 4.957031 7.625 4.957031 7.648438 C 5 6.027344 6.300781 4.75 7.9375 4.75 C 8.128906 4.753906 8.308594 4.671875 8.4375 4.53125 C 8.5625 4.390625 8.621094 4.199219 8.597656 4.011719 Z M 3.644531 7.652344 C 3.644531 7.679688 3.644531 7.707031 3.644531 7.734375 C 3.644531 9.398438 4.59375 10.851562 5.988281 11.558594 C 6.203125 11.675781 6.464844 11.65625 6.664062 11.519531 C 6.867188 11.378906 6.972656 11.140625 6.941406 10.898438 C 6.917969 11.109375 6.785156 11.296875 6.597656 11.398438 C 6.40625 11.5 6.175781 11.5 5.988281 11.398438 C 4.617188 10.699219 3.675781 9.285156 3.644531 7.652344 Z M 3.644531 7.652344 "/>
<path style="fill:none;stroke-width:3;stroke-linecap:round;stroke-linejoin:round;stroke:rgb(12.941177%,12.941177%,12.941177%);stroke-opacity:1;stroke-miterlimit:4;" d="M 253.975747 -105.010503 C 178.23298 -105.010503 116.613864 -43.391388 116.613864 32.476367 C 116.613864 85.721283 146.985964 132.216842 191.606702 154.839682 C 198.23107 158.464336 206.355294 158.089372 212.729685 153.964766 C 219.104077 149.84016 222.72873 142.71584 222.353766 135.091568 C 221.853814 127.592284 217.354244 120.842929 210.604888 117.468251 C 179.732836 101.719755 158.609854 69.847798 158.609854 32.476367 C 158.609854 -20.768548 200.730831 -63.014514 253.975747 -63.014514 C 261.600018 -62.889526 268.59935 -66.889144 272.47398 -73.388523 C 276.223622 -80.012891 276.223622 -88.012127 272.47398 -94.636494 C 268.59935 -101.135873 261.600018 -105.135492 253.975747 -105.010503 Z M 253.975747 -105.010503 " transform="matrix(0.031253,0,0,0.031253,0,6.719392)"/>
</g>
</svg>
